packages/kaspersky-hexa-ui-icons/src/iconsSVGs/16/Other.svg

<svg width="16" height="16" viewBox="0 0 16 16" fill="none" xmlns="http://www.w3.org/2000/svg">
<path d="M2.30621 2.79259C2.6049 2.59346 3.00847 2.67417 3.2076 2.97286L4.23678 4.51664C5.30692 3.78079 6.60321 3.35008 8.0001 3.35008C9.39698 3.35008 10.6933 3.78079 11.7634 4.51664L12.7926 2.97286C12.9917 2.67417 13.3953 2.59346 13.694 2.79259C13.9927 2.99172 14.0734 3.39528 13.8743 3.69397L12.7636 5.35991C13.931 6.5581 14.6501 8.19511 14.6501 10.0001V12.0001C14.6501 12.3591 14.3591 12.6501 14.0001 12.6501C13.6411 12.6501 13.3501 12.3591 13.3501 12.0001V10.0001C13.3501 7.04536 10.9548 4.65008 8.0001 4.65008C5.04537 4.65008 2.6501 7.04536 2.6501 10.0001V12.0001C2.6501 12.3591 2.35908 12.6501 2.0001 12.6501C1.64111 12.6501 1.3501 12.3591 1.3501 12.0001V10.0001C1.3501 8.19511 2.06921 6.5581 3.23656 5.35991L2.12593 3.69397C1.9268 3.39528 2.00752 2.99172 2.30621 2.79259Z" fill="black"/>
<path d="M6.66676 8.00009C6.66676 8.36828 6.36829 8.66675 6.0001 8.66675C5.63191 8.66675 5.33343 8.36828 5.33343 8.00009C5.33343 7.6319 5.63191 7.33342 6.0001 7.33342C6.36829 7.33342 6.66676 7.6319 6.66676 8.00009Z" fill="black"/>
<path d="M10.0001 8.66675C10.3683 8.66675 10.6668 8.36828 10.6668 8.00009C10.6668 7.6319 10.3683 7.33342 10.0001 7.33342C9.63191 7.33342 9.33343 7.6319 9.33343 8.00009C9.33343 8.36828 9.63191 8.66675 10.0001 8.66675Z" fill="black"/>
<path d="M6.68343 9.33342C6.68343 8.97443 6.97445 8.68342 7.33343 8.68342H8.66676C9.02575 8.68342 9.31676 8.97443 9.31676 9.33342C9.31676 9.6924 9.02575 9.98342 8.66676 9.98342H7.33343C6.97445 9.98342 6.68343 9.6924 6.68343 9.33342Z" fill="black"/>
</svg>

<svg xmlns="http://www.w3.org/2000/svg" width="16" height="16" fill="none" viewBox="0 0 16 16"><path fill="#000" d="M2.3062 2.7926a.65.65 0 0 1 .9014.1803l1.0292 1.5437C5.3069 3.7808 6.6032 3.3501 8 3.3501s2.6932.4307 3.7633 1.1665l1.0292-1.5437a.65.65 0 0 1 1.0817.721L12.7636 5.36c1.1674 1.1982 1.8865 2.8352 1.8865 4.6402v2a.65.65 0 1 1-1.3 0v-2c0-2.9547-2.3953-5.35-5.35-5.35s-5.35 2.3953-5.35 5.35v2a.65.65 0 1 1-1.3 0v-2c0-1.805.7191-3.442 1.8865-4.6402L2.1259 3.694a.65.65 0 0 1 .1803-.9013"/><path fill="#000" d="M6.667 8a.667.667 0 1 1-1.333 0 .667.667 0 0 1 1.333 0M10 8.667a.667.667 0 1 0 0-1.333.667.667 0 0 0 0 1.333m-3.317.666a.65.65 0 0 1 .65-.65h1.333a.65.65 0 1 1 0 1.3H7.333a.65.65 0 0 1-.65-.65"/></svg>
